X:103
T:The Damsels of Cardigan
M:4/4
L:1/8
Q:100
C:Trad. arr. J.T.
S:Davidsons Musical Miracles 1859
R:Processional
N:Aeolian mode arrangement
K:G
B | E2 EE FE FG | A>G Ac c B2 B | G>F EG FE DF | F>E
EE E3 :|| G/A/ | B2 cA BG FG | FE EE E3 G/A/ | B2 c
A B G FG | A2 BG G F2 G/A/ | B2 cA BG FG | Ac BG F4 | E4
FE FG | A>G Ac cB B2 | G>F EG FE DF | FE EE E3 ||
